icons/svg/figma.svg

<svg width="24" height="24" viewBox="0 0 24 24" fill="none" xmlns="http://www.w3.org/2000/svg">
<path d="M5.83334 5.83333C5.83334 4.13045 7.2138 2.75 8.91668 2.75H12V8.91667H8.91668C7.2138 8.91667 5.83334 7.53621 5.83334 5.83333V5.83333Z" stroke="currentColor" stroke-width="1.5" stroke-linecap="round" stroke-linejoin="round"/>
<path d="M18.1667 5.83333C18.1667 4.13045 16.7862 2.75 15.0833 2.75H12V8.91667H15.0833C16.7862 8.91667 18.1667 7.53621 18.1667 5.83333V5.83333Z" stroke="currentColor" stroke-width="1.5" stroke-linecap="round" stroke-linejoin="round"/>
<rect width="6.16667" height="6.16667" rx="3.08333" transform="matrix(-1 0 0 1 18.1667 8.91669)" stroke="currentColor" stroke-width="1.5" stroke-linecap="round" stroke-linejoin="round"/>
<path d="M5.83334 12C5.83334 10.2971 7.2138 8.91669 8.91668 8.91669H12V15.0834H8.91668C7.2138 15.0834 5.83334 13.7029 5.83334 12V12Z" stroke="currentColor" stroke-width="1.5" stroke-linecap="round" stroke-linejoin="round"/>
<path d="M5.83334 18.1666C5.83334 16.4638 7.2138 15.0833 8.91668 15.0833H12V18.1666C12 19.8695 10.6196 21.25 8.91668 21.25V21.25C7.2138 21.25 5.83334 19.8695 5.83334 18.1666V18.1666Z" stroke="currentColor" stroke-width="1.5" stroke-linecap="round" stroke-linejoin="round"/>
</svg>

<svg xmlns="http://www.w3.org/2000/svg" width="24" height="24" fill="none" viewBox="0 0 24 24"><path stroke="currentColor" stroke-linecap="round" stroke-linejoin="round" stroke-width="1.5" d="M5.833 5.833A3.083 3.083 0 0 1 8.917 2.75H12v6.167H8.917a3.083 3.083 0 0 1-3.084-3.084m12.334 0a3.083 3.083 0 0 0-3.084-3.083H12v6.167h3.083a3.083 3.083 0 0 0 3.084-3.084"/><rect width="6.167" height="6.167" stroke="currentColor" stroke-linecap="round" stroke-linejoin="round" stroke-width="1.5" rx="3.083" transform="matrix(-1 0 0 1 18.167 8.917)"/><path stroke="currentColor" stroke-linecap="round" stroke-linejoin="round" stroke-width="1.5" d="M5.833 12a3.083 3.083 0 0 1 3.084-3.083H12v6.166H8.917A3.083 3.083 0 0 1 5.833 12"/><path stroke="currentColor" stroke-linecap="round" stroke-linejoin="round" stroke-width="1.5" d="M5.833 18.167a3.083 3.083 0 0 1 3.084-3.084H12v3.084a3.083 3.083 0 0 1-3.083 3.083v0a3.083 3.083 0 0 1-3.084-3.083"/></svg>
